src/topics/icons/meteor.svg

<svg height="124" preserveAspectRatio="xMidYMid" viewBox="0 0 512 124" width="512" xmlns="http://www.w3.org/2000/svg"><g fill-rule="evenodd"><g fill="#df4f4f" transform="translate(303.542858)"><path d="m.21500326.21482518 107.28662774 113.64251782s3.655055 2.577902 6.450098-.429651c2.795042-3.007552.645009-6.015105.645009-6.015105z"/><path d="m34.1855185 10.9560839 81.7012395 88.0783218s3.655055 2.5779023 6.450098-.4296506c2.795042-3.0075523.64501-6.0151048.64501-6.0151048z"/><path d="m10.3201565 33.9423777 81.7012394 88.0783213s3.6550555 2.577902 6.4500979-.42965c2.7950422-3.007553.6450099-6.015105.6450099-6.015105z"/><path d="m62.9031778 20.1935664 57.0797782 61.5350644s2.553569 1.8010263 4.506298-.3001711c1.952729-2.1011972.45063-4.2023946.45063-4.2023946z"/><path d="m18.1824995 60.5806993 57.0797777 61.5350647s2.5535691 1.801026 4.5062982-.300171c1.9527293-2.101198.4506298-4.202395.4506298-4.202395z"/><path d="m92.2363992 33.5127273 25.8704768 27.9744705s1.263168.8439153 2.229119-.1406525c.965952-.9845676.222912-1.9691355.222912-1.9691355z"/><path d="m32.4654926 88.9376223 25.8704767 27.9744707s1.2631677.843915 2.2291196-.140653c.9659517-.984567.2229119-1.969135.2229119-1.969135z"/></g><g fill="#26262c" transform="translate(0 44.184078)"><path d="m446.171429 2.04554715v75.43374005l17.066666.0000022v-24.3326756h12.8l16.457142 24.3326734h19.504763l-18.285713-26.1576239s16.237711-6.4177412 16.237711-23.8257431c0-24.57599939-22.332951-25.4479202-22.332951-25.4479202zm17.066666 14.60205685v21.8994059h21.942858s8.387047-.0009719 8.387047-10.9506754c0-11.3653862-10.215619-10.9487305-10.215619-10.9487305z"/><path d="m257.219047 2.048v75.4312872h57.29524v-14.599604h-40.228574v-15.8162377h34.742858v-14.599604h-34.742858v-15.8279316h40.228574v-14.5879099z"/><path d="m174.323809 2.048v14.599604h22.552382v60.8316832h17.066667v-60.8316832h22.552379v-14.599604z"/><path d="m96.3047619 2.048v75.4312872h57.2952381v-14.599604h-40.228571v-15.8162377h34.742857v-14.599604h-34.742857v-15.8279316h40.228573v-14.5879099z"/><path d="m.00000001 2.04609952v75.43508738l17.05524179-.0013474v-47.4511657l20.7238093 30.4158415 20.7352353-30.4158425v47.4525141l17.066666.0000017v-75.43508995h-17.0666666l-20.7352347 31.02415935-20.723809-31.02415935z"/></g></g></svg>

<?xml version="1.0" encoding="UTF-8" standalone="no"?>
<svg width="512px" height="124px" viewBox="0 0 512 124" version="1.1" xmlns="http://www.w3.org/2000/svg" xmlns:xlink="http://www.w3.org/1999/xlink" preserveAspectRatio="xMidYMid">
    <g fill-rule="evenodd">
		<g transform="translate(303.542858, 0.000000)" fill="#DF4F4F">
			<path d="M0.215003261,0.214825175 L107.501631,113.857343 C107.501631,113.857343 111.156686,116.435245 113.951729,113.427692 C116.746771,110.42014 114.596738,107.412587 114.596738,107.412587 L0.215003261,0.214825175 L0.215003261,0.214825175 Z"></path>
			<path d="M34.1855185,10.9560839 L115.886758,99.0344057 C115.886758,99.0344057 119.541813,101.612308 122.336856,98.6047551 C125.131898,95.5972028 122.981866,92.5896503 122.981866,92.5896503 L34.1855185,10.9560839 L34.1855185,10.9560839 Z"></path>
			<path d="M10.3201565,33.9423777 L92.0213959,122.020699 C92.0213959,122.020699 95.6764514,124.598601 98.4714938,121.591049 C101.266536,118.583496 99.1165037,115.575944 99.1165037,115.575944 L10.3201565,33.9423777 L10.3201565,33.9423777 Z"></path>
			<path d="M62.9031778,20.1935664 L119.982956,81.7286308 C119.982956,81.7286308 122.536525,83.5296571 124.489254,81.4284597 C126.441983,79.3272625 124.939884,77.2260651 124.939884,77.2260651 L62.9031778,20.1935664 L62.9031778,20.1935664 Z"></path>
			<path d="M18.1824995,60.5806993 L75.2622772,122.115764 C75.2622772,122.115764 77.8158463,123.91679 79.7685754,121.815593 C81.7213047,119.714395 80.2192052,117.613198 80.2192052,117.613198 L18.1824995,60.5806993 L18.1824995,60.5806993 Z"></path>
			<path d="M92.2363992,33.5127273 L118.106876,61.4871978 C118.106876,61.4871978 119.370044,62.3311131 120.335995,61.3465453 C121.301947,60.3619777 120.558907,59.3774098 120.558907,59.3774098 L92.2363992,33.5127273 L92.2363992,33.5127273 Z"></path>
			<path d="M32.4654926,88.9376223 L58.3359693,116.912093 C58.3359693,116.912093 59.599137,117.756008 60.5650889,116.77144 C61.5310406,115.786873 60.7880008,114.802305 60.7880008,114.802305 L32.4654926,88.9376223 L32.4654926,88.9376223 Z"></path>
		</g>
		<g transform="translate(0.000000, 44.184078)" fill="#26262C">
			<path d="M446.171429,2.04554715 L446.171429,77.4792872 L463.238095,77.4792894 L463.238095,53.1466138 L476.038095,53.1466138 L492.495237,77.4792872 L512,77.4792872 L493.714287,51.3216633 C493.714287,51.3216633 509.951998,44.9039221 509.951998,27.4959202 C509.951998,2.91992081 487.619047,2.048 487.619047,2.048 L446.171429,2.04554715 L446.171429,2.04554715 Z M463.238095,16.647604 L463.238095,38.5470099 L485.180953,38.5470099 C485.180953,38.5470099 493.568,38.546038 493.568,27.5963345 C493.568,16.2309483 483.352381,16.647604 483.352381,16.647604 L463.238095,16.647604 L463.238095,16.647604 Z"></path>
			<path d="M257.219047,2.048 L257.219047,77.4792872 L314.514287,77.4792872 L314.514287,62.8796832 L274.285713,62.8796832 L274.285713,47.0634455 L309.028571,47.0634455 L309.028571,32.4638415 L274.285713,32.4638415 L274.285713,16.6359099 L314.514287,16.6359099 L314.514287,2.048 L257.219047,2.048 L257.219047,2.048 Z"></path>
			<path d="M174.323809,2.048 L174.323809,16.647604 L196.876191,16.647604 L196.876191,77.4792872 L213.942858,77.4792872 L213.942858,16.647604 L236.495237,16.647604 L236.495237,2.048 L174.323809,2.048 L174.323809,2.048 Z"></path>
			<path d="M96.3047619,2.048 L96.3047619,77.4792872 L153.6,77.4792872 L153.6,62.8796832 L113.371429,62.8796832 L113.371429,47.0634455 L148.114286,47.0634455 L148.114286,32.4638415 L113.371429,32.4638415 L113.371429,16.6359099 L153.600002,16.6359099 L153.600002,2.048 L96.3047619,2.048 L96.3047619,2.048 Z"></path>
			<path d="M1.36420155e-08,2.04609952 L1.36420155e-08,77.4811869 L17.0552418,77.4798395 L17.0552418,30.0286738 L37.7790511,60.4445153 L58.5142864,30.0286728 L58.5142864,77.4811869 L75.5809524,77.4811886 L75.5809524,2.04609865 L58.5142858,2.04609865 L37.7790511,33.070258 L17.0552421,2.04609865 L1.36420155e-08,2.04609952 L1.36420155e-08,2.04609952 Z"></path>
		</g>
    </g>
</svg>
